svgs/calendar.svg

<?xml version="1.0" encoding="utf-8"?>
<!-- Generator: Adobe Illustrator 23.1.1, SVG Export Plug-In . SVG Version: 6.00 Build 0)  -->
<svg version="1.1" xmlns="http://www.w3.org/2000/svg" xmlns:xlink="http://www.w3.org/1999/xlink" x="0px" y="0px"
	 viewBox="0 0 16 16" style="enable-background:new 0 0 16 16;" xml:space="preserve">
<style type="text/css">
	.st0{display:none;}
	.st1{display:inline;}
	.st2{fill:#404040;}
	.st3{fill:#FFFFFF;}
	.st4{fill:none;}
	.st5{opacity:0.3;fill:none;}
	.st6{fill:#FF0000;}
	.st7{fill-rule:evenodd;clip-rule:evenodd;fill:#404040;}
	.st8{fill-rule:evenodd;clip-rule:evenodd;fill:#FFFFFF;}
	.st9{fill-rule:evenodd;clip-rule:evenodd;fill:#2867B2;}
	.st10{fill:#EE1376;}
	.st11{fill:#1DA1F2;}
	.st12{fill:#1877F2;}
	.st13{display:inline;fill:none;}
	.st14{display:inline;fill:#404040;}
	.st15{display:inline;opacity:0.3;fill:none;}
	.st16{display:inline;fill-rule:evenodd;clip-rule:evenodd;fill:#404040;}
	.st17{fill:none;stroke:#404040;stroke-width:2;stroke-linecap:round;}
</style>
<g id="Outter_Container" class="st0">
</g>
<g id="NEW" class="st0">
</g>
<g id="NEW_NO_Container">
	<g id="icon-calendar_2_">
		<path class="st2" d="M15,2.0002h-2v-1c0-0.5527-0.4473-1-1-1s-1,0.4473-1,1v1H5v-1c0-0.5527-0.4473-1-1-1s-1,0.4473-1,1v1H1
			c-0.5527,0-1,0.4473-1,1v12c0,0.5527,0.4473,1,1,1h10.0264c0.1303,0,0.2602-0.0265,0.3825-0.0771
			c0.123-0.0509,0.2336-0.1246,0.326-0.2175c0.0001-0.0001,0.0003-0.0002,0.0004-0.0003l3.9705-3.9968
			c0.0009-0.0009,0.0016-0.0016,0.0024-0.0024l0.0007-0.0007c0.0046-0.0046,0.0059-0.011,0.0104-0.0157
			c0.0856-0.0894,0.1561-0.1931,0.204-0.3095c0.0414-0.1008,0.0563-0.2075,0.0634-0.3144C15.9883,11.0429,16,11.0235,16,11.0002v-8
			C16,2.4475,15.5527,2.0002,15,2.0002z M11.0264,13.5815v-2.5812h2.5642L11.0264,13.5815z M14,4.0002v5h-3.9736
			c-0.5527,0-1,0.4473-1,1v4H2v-10H14z"/>
	</g>
</g>
</svg>

<svg id="NEW_NO_Container" data-name="NEW NO Container" xmlns="http://www.w3.org/2000/svg" viewBox="0 0 16 16"><defs><style>.cls-1{fill:#404040;}</style></defs><title>icon-calendar</title><g id="icon-calendar"><path class="cls-1" d="M15,2H13V1a1,1,0,1,0-2,0V2H5V1A1,1,0,0,0,3,1V2H1A1,1,0,0,0,0,3V15a.9994.9994,0,0,0,1,1H11.0264a1.01,1.01,0,0,0,.7085-.2946l.0005,0,3.97-3.9968.0024-.0025.0007-.0007c.0046-.0046.0058-.011.01-.0157a.9064.9064,0,0,0,.2674-.6239C15.9883,11.0429,16,11.0235,16,11V3A1,1,0,0,0,15,2ZM11.0264,13.5815V11h2.5642ZM14,4V9H10.0264a.9994.9994,0,0,0-1,1v4H2V4Z" transform="translate(0 -0.0002)"/></g></svg>
